X:402
T: VATER NOAH WEINERFINDER
N: F0738
O: Europa, Mitteleuropa, Deutschland
R: Geselligkeits -, Trink - Lied
M: 4/4
L: 1/8
K: Bb
FF | B2B2c2c2 | dcB2z2
BB | c2c2d2d2 | c4z2
FF | B2B2c2c2 | dcB2z2
BB | c2c2d2d2 | c4
dcBA | G2A=Bc2d2 | e4
e2dc | cBAGF2GA | B4
dcBA | G2A=Bc2d2 | e4
e2dc | cBAGF2GA | B4z2

